X:103
T:103 Untitled Waltz
C:Welch MS
I:abc2nwc
M:3/4
L:1/8
K:D
A2|d2fedc|B2B2B2|e2efBd|c2A2A2|d2dc d2|e2e^d e2|f2f2^g2|a4a2|
d2fedc|B2B2B2|e2efBd|c2A2A2|d2dc d2|e2e^d e2|f2f2^g2|a4||
a2|f2f2a3/2f/2|e2e2g3/2e/2|d2d2f3/2d/2|A2B2c2|d2e2f2|e2f2g2|a2b2c'2|d'4a2|
f2f2a3/2f/2|e2e2g3/2e/2|d2d2f3/2d/2|A2B2c2|d2e2f2|e2f2g2|a2b2c'2|d'4||
A2|A4B2|A2z2d2|d2c2B2|A2z2d2|d2c2d2|d2c2B2|B2A2^G2|A4A2|
A4B2|A2z2d2|d2c2B2|A2z2d2|d2c2d2|d2c2B2|B2A2^G2|A4||
g2|g4f2|g4f2|g2bagf|e2z2b2|a4b2|a2g2f2|fe d2c2|d4g2|
g4f2|g4f2|g2bagf|e2z2b2|a4b2|a2g2f2|fe d2c2|d4|]

